X: 33
T:Fires in August
M:4/4
L:1/4
Q:100
C: Richard Davies
S:Lagabag Morris Tape
A:Buxhall
K:G
BGdB| c/2B/2A/2B/2 c d|BGFG|A>B A>A|BGdB| c/2B/2A/2B/2 c d|B/2d/2B/2G/2
A A|G>A G2:||
B/2A/2G/2A/2  B/2A/2G/2A/2 |B/2d/2B/2G/2A A|B/2A/2G/2A/2  B/2A/2G/2A/2 |
 BdGA| B/2A/2G/2A/2  B/2A/2G/2A/2 |B/2d/2B/2G/2A A|B/2d/2B/2G/2 A A|G>AG
2:||
